; Postprocessed by [ArcWelder](https://github.com/FormerLurker/ArcWelderLib)
; Copyright(C) 2021 - Brad Hochgesang
; Version: 1.2.0, Branch: master, BuildDate: 2021-11-21T20:04:00Z
; resolution=0.05mm
; path_tolerance=5.0%
; max_radius=9999.00mm
; default_xyz_precision=3
; default_e_precision=5
; extrusion_rate_variance=5.0%

; generated by AnycubicSlicer 1.4.4 on 2024-12-04 at 00:09:55 UTC




; 

; external perimeters extrusion width = 0.45mm
; perimeters extrusion width = 0.45mm
; infill extrusion width = 0.45mm
; solid infill extrusion width = 0.45mm
; top infill extrusion width = 0.42mm
; first layer extrusion width = 0.50mm

; external perimeters extrusion width = 0.45mm
; perimeters extrusion width = 0.45mm
; infill extrusion width = 0.45mm
; solid infill extrusion width = 0.45mm
; top infill extrusion width = 0.42mm
; first layer extrusion width = 0.50mm

; external perimeters extrusion width = 0.45mm
; perimeters extrusion width = 0.45mm
; infill extrusion width = 0.45mm
; solid infill extrusion width = 0.45mm
; top infill extrusion width = 0.42mm
; first layer extrusion width = 0.50mm

; external perimeters extrusion width = 0.45mm
; perimeters extrusion width = 0.45mm
; infill extrusion width = 0.45mm
; solid infill extrusion width = 0.45mm
; top infill extrusion width = 0.42mm
; first layer extrusion width = 0.50mm

; external perimeters extrusion width = 0.45mm
; perimeters extrusion width = 0.45mm
; infill extrusion width = 0.45mm
; solid infill extrusion width = 0.45mm
; top infill extrusion width = 0.42mm
; first layer extrusion width = 0.50mm

; external perimeters extrusion width = 0.45mm
; perimeters extrusion width = 0.45mm
; infill extrusion width = 0.45mm
; solid infill extrusion width = 0.45mm
; top infill extrusion width = 0.42mm
; first layer extrusion width = 0.50mm

; external perimeters extrusion width = 0.45mm
; perimeters extrusion width = 0.45mm
; infill extrusion width = 0.45mm
; solid infill extrusion width = 0.45mm
; top infill extrusion width = 0.42mm
; first layer extrusion width = 0.50mm

; external perimeters extrusion width = 0.45mm
; perimeters extrusion width = 0.45mm
; infill extrusion width = 0.45mm
; solid infill extrusion width = 0.45mm
; top infill extrusion width = 0.42mm
; first layer extrusion width = 0.50mm

; external perimeters extrusion width = 0.45mm
; perimeters extrusion width = 0.45mm
; infill extrusion width = 0.45mm
; solid infill extrusion width = 0.45mm
; top infill extrusion width = 0.42mm
; first layer extrusion width = 0.50mm

; external perimeters extrusion width = 0.45mm
; perimeters extrusion width = 0.45mm
; infill extrusion width = 0.45mm
; solid infill extrusion width = 0.45mm
; top infill extrusion width = 0.42mm
; first layer extrusion width = 0.50mm

; external perimeters extrusion width = 0.45mm
; perimeters extrusion width = 0.45mm
; infill extrusion width = 0.45mm
; solid infill extrusion width = 0.45mm
; top infill extrusion width = 0.42mm
; first layer extrusion width = 0.50mm

; external perimeters extrusion width = 0.45mm
; perimeters extrusion width = 0.45mm
; infill extrusion width = 0.45mm
; solid infill extrusion width = 0.45mm
; top infill extrusion width = 0.42mm
; first layer extrusion width = 0.50mm

; external perimeters extrusion width = 0.45mm
; perimeters extrusion width = 0.45mm
; infill extrusion width = 0.45mm
; solid infill extrusion width = 0.45mm
; top infill extrusion width = 0.42mm
; first layer extrusion width = 0.50mm

; external perimeters extrusion width = 0.45mm
; perimeters extrusion width = 0.45mm
; infill extrusion width = 0.45mm
; solid infill extrusion width = 0.45mm
; top infill extrusion width = 0.42mm
; first layer extrusion width = 0.50mm

; external perimeters extrusion width = 0.45mm
; perimeters extrusion width = 0.45mm
; infill extrusion width = 0.45mm
; solid infill extrusion width = 0.45mm
; top infill extrusion width = 0.42mm
; first layer extrusion width = 0.50mm

; external perimeters extrusion width = 0.45mm
; perimeters extrusion width = 0.45mm
; infill extrusion width = 0.45mm
; solid infill extrusion width = 0.45mm
; top infill extrusion width = 0.42mm
; first layer extrusion width = 0.50mm

;TYPE:Custom
G90 ; use absolute coordinates
M83 ; extruder relative mode
M140 S60 ; set bed temp
M190 S60 ; wait for bed temp
M104 S220 ; set extruder temp
M109 S220 ; wait for extruder temp
G28                                        ; move X/Y/Z to min endstops
G1 Z0.28                                   ; lift nozzle a bit 
G92 E0 
G1 Y3 F2400                                    ; zero the extruded length 
G1 X180  E40 F500                       ; Extrude 25mm of filament in a 5cm line. 
G92 E0                                     ; zero the extruded length again 
G1 E-2 F3000                                ; Retract a little 
G1 X181 F4000                              ; Quickly wipe away from the filament line
M117
G21 ; set units to millimeters
G90 ; use absolute coordinates
M82 ; use absolute distances for extrusion
G92 E0
M107
;LAYER_CHANGE
;Z:0.24
;HEIGHT:0.24
; BEFORE_LAYER_CHANGE 0 @ 0.24mm
G1 Z.24 F18000
; AFTER_LAYER_CHANGE 0 @ 0.24mm
G1 E-1.5 F6000
G92 E0
G1 X273.748 Y19.347 F18000
G1 E1.5 F6000
M204 S5000
;TYPE:Skirt/Brim
;WIDTH:0.5
G1 F3600
G1 X273.834 Y18.872 E1.52117
G1 X274.012 Y18.419 E1.54252
G1 X274.308 Y17.97 E1.56611
G1 X274.855 Y17.442 E1.59945
G1 X275.181 Y17.239 E1.61629
G1 X275.572 Y17.075 E1.63489
G1 X276.132 Y16.963 E1.65994
G1 X297.746 Y16.968 E2.60784
G1 X298.184 Y17.053 E2.62741
G1 X298.624 Y17.227 E2.64816
G1 X299.1 Y17.545 E2.67327
G1 X299.495 Y17.94 E2.69777
G1 X299.716 Y18.235 E2.71394
G1 X299.961 Y18.765 E2.73955
G1 X300.058 Y19.141 E2.75658
G1 X300.072 Y26.006 E3.05765
G1 X299.98 Y26.438 E3.07702
G1 X299.802 Y26.869 E3.09747
G1 X299.565 Y27.237 E3.11667
G1 X299.067 Y27.743 E3.14781
G1 X298.614 Y28.038 E3.17152
G1 X298.199 Y28.204 E3.19112
G1 X297.731 Y28.293 E3.21201
G1 X295.467 Y28.297 E3.3113
G1 X293.481 Y34.985 E3.61727
G3 X288.510 Y49.159 I-6.575 J5.653 E4.41359
G1 X288.561 Y49.55 E4.43088
G1 X297.746 Y49.551 E4.8337
G3 X300.065 Y51.778 I-0.344 J2.679 E4.98478
G1 X300.066 Y58.636 E5.28554
G3 X299.594 Y59.784 I-2.498 J-0.356 E5.34047
G3 X298.651 Y60.603 I-2.346 J-1.749 E5.39555
G3 X297.731 Y60.877 I-1.138 J-2.139 E5.43786
G1 X295.467 Y60.881 E5.53715
G1 X293.481 Y67.568 E5.84308
G3 X280.347 Y67.568 I-6.567 J5.650 E7.57628
G1 X278.362 Y60.881 E7.88219
G1 X276.098 Y60.877 E7.98148
G3 X274.720 Y60.291 I0.230 J-2.455 E8.04808
G1 X274.199 Y59.737 E8.08143
G3 X273.752 Y58.539 I2.037 J-1.443 E8.13806
G1 X273.751 Y51.891 E8.42962
G3 X276.132 Y49.547 I2.668 J0.329 E8.58782
G1 X285.295 Y49.549 E8.98967
G1 X285.341 Y49.151 E9.00724
G3 X280.347 Y34.984 I1.569 J-8.517 E9.80444
G1 X278.362 Y28.297 E10.11035
G1 X276.098 Y28.293 E10.20964
G3 X273.748 Y25.912 I0.319 J-2.665 E10.36814
G1 X273.748 Y19.407 E10.65342
M204 S10000
G1 E9.60342 F6000
;WIPE_START
G1 F14400
G3 X274.072 Y18.329 I2.241 J0.086 E9.15342
;WIPE_END
G92 E0
G1 X276.154 Y49.996 F18000
G1 E1.5 F6000
M204 S5000
G1 F3600
G1 X297.723 Y50 E2.44593
G3 X299.617 Y51.806 I-0.324 J2.236 E2.56838
G1 X299.623 Y58.564 E2.86476
G3 X297.672 Y60.432 I-2.206 J-0.351 E2.99197
G1 X295.132 Y60.432 E3.10336
G1 X292.984 Y67.668 E3.43439
G3 X280.845 Y67.668 I-6.070 J5.544 E5.09972
G1 X278.696 Y60.432 E5.43076
G1 X276.157 Y60.432 E5.54211
G3 X274.196 Y58.474 I0.259 J-2.221 E5.67329
G1 X274.196 Y51.952 E5.95932
G3 X276.095 Y50.007 I2.214 J0.262 E6.08766
M204 S10000
G1 X276.176 Y50.444 F18000
M204 S5000
G1 F3600
G1 X297.697 Y50.448 E7.03149
G3 X299.174 Y51.884 I-0.297 J1.783 E7.12766
G1 X299.18 Y58.494 E7.41755
G3 X297.652 Y59.984 I-1.762 J-0.278 E7.51787
G1 X294.797 Y59.984 E7.64308
G1 X292.477 Y67.8 E8.00064
G3 X281.352 Y67.800 I-5.562 J5.418 E9.59650
G1 X279.031 Y59.984 E9.95407
G1 X276.177 Y59.984 E10.07924
G3 X274.645 Y58.452 I0.239 J-1.771 E10.18142
G1 X274.645 Y51.976 E10.46543
G3 X276.117 Y50.456 I1.762 J0.234 E10.56492
M204 S10000
G1 X276.198 Y50.893 F18000
M204 S5000
G1 F3600
G1 X297.672 Y50.897 E11.50668
G3 X298.731 Y51.957 I-0.269 J1.328 E11.57630
G1 X298.736 Y58.43 E11.86018
G3 X297.633 Y59.535 I-1.325 J-0.219 E11.93330
G1 X294.463 Y59.535 E12.07232
G1 X291.971 Y67.929 E12.45633
G3 X281.858 Y67.929 I-5.056 J5.289 E13.98293
G1 X279.366 Y59.535 E14.36694
G1 X276.195 Y59.535 E14.50601
G3 X275.093 Y58.430 I0.209 J-1.310 E14.57908
G1 X275.093 Y51.998 E14.86116
G3 X276.139 Y50.904 I1.304 J0.200 E14.93176
M204 S10000
G1 X276.22 Y51.341 F18000
M204 S5000
G1 F3600
G1 X297.608 Y51.341 E15.86975
G1 X297.894 Y51.459 E15.88332
G1 X298.193 Y51.771 E15.90227
G1 X298.287 Y52.02 E15.91394
G1 X298.278 Y58.451 E16.19598
G3 X297.608 Y59.087 I-0.868 J-0.244 E16.23828
G1 X294.128 Y59.087 E16.3909
G1 X291.465 Y68.057 E16.80126
G3 X282.364 Y68.057 I-4.551 J5.154 E18.25863
G1 X279.701 Y59.087 E18.66899
G1 X276.22 Y59.087 E18.82165
G3 X275.550 Y58.451 I0.203 J-0.885 E18.86393
G1 X275.542 Y52.02 E19.14597
G3 X276.162 Y51.356 I0.868 J0.189 E19.18754
M204 S10000
G1 X276.287 Y51.79 F18000
M204 S5000
G1 F3600
G1 X297.542 Y51.79 E20.1197
G3 X297.839 Y52.086 I-0.134 J0.432 E20.13866
G1 X297.839 Y58.341 E20.41298
G3 X297.542 Y58.638 I-0.425 J-0.128 E20.43198
G1 X293.793 Y58.638 E20.5964
G1 X290.949 Y68.22 E21.03475
G3 X282.880 Y68.220 I-4.035 J4.996 E22.42148
G1 X280.035 Y58.638 E22.85984
G1 X276.287 Y58.638 E23.02421
G3 X275.990 Y58.341 I0.124 J-0.421 E23.04323
G1 X275.99 Y52.086 E23.31755
G3 X276.231 Y51.813 I0.416 J0.125 E23.33379
M204 S10000
G1 E22.28379 F6000
;WIPE_START
G1 F14400
G1 X277.368 Y51.812 E21.83379
;WIPE_END
G92 E0
G1 X281.212 Y46.548 F18000
G1 E1.5 F6000
M204 S5000
G1 F3600
G3 X280.845 Y35.085 I5.710 J-5.920 E2.05635
G1 X278.696 Y27.848 E2.38743
G1 X276.157 Y27.848 E2.49878
G3 X274.196 Y25.890 I0.257 J-2.218 E2.62998
G1 X274.196 Y19.369 E2.91597
G3 X276.154 Y17.412 I2.222 J0.265 E3.04696
G1 X297.723 Y17.416 E3.99289
G3 X299.617 Y19.223 I-0.323 J2.235 E4.11537
G1 X299.623 Y25.98 E4.41171
G3 X297.672 Y27.848 I-2.203 J-0.348 E4.53896
G1 X295.132 Y27.848 E4.65035
G1 X292.984 Y35.084 E4.98138
G3 X281.256 Y46.589 I-6.069 J5.543 E6.08766
M204 S10000
G1 X281.558 Y46.257 F18000
M204 S5000
G1 F3600
G3 X281.352 Y35.216 I5.343 J-5.622 E6.62647
G1 X279.031 Y27.4 E6.98404
G1 X276.177 Y27.4 E7.10921
G3 X274.645 Y25.868 I0.239 J-1.771 E7.21139
G1 X274.645 Y19.392 E7.4954
G3 X276.176 Y17.860 I1.771 J0.238 E7.59753
G1 X297.697 Y17.865 E8.54136
G3 X299.174 Y19.301 I-0.295 J1.781 E8.63755
G1 X299.18 Y25.911 E8.92744
G3 X297.652 Y27.400 I-1.762 J-0.279 E9.02773
G1 X294.797 Y27.4 E9.15294
G1 X292.477 Y35.216 E9.5105
G3 X281.602 Y46.297 I-5.561 J5.419 E10.56499
M204 S10000
G1 X281.904 Y45.965 F18000
M204 S5000
G1 F3600
G3 X281.858 Y35.345 I4.995 J-5.332 E11.08627
G1 X279.366 Y26.951 E11.47028
G1 X276.195 Y26.951 E11.60935
G3 X275.093 Y25.846 I0.209 J-1.310 E11.68245
G1 X275.093 Y19.414 E11.96453
G3 X276.198 Y18.309 I1.310 J0.205 E12.03776
G1 X297.672 Y18.313 E12.97952
G3 X298.731 Y19.373 I-0.272 J1.330 E13.04913
G1 X298.736 Y25.846 E13.33301
G3 X297.633 Y26.951 I-1.321 J-0.216 E13.40615
G1 X294.463 Y26.951 E13.54517
G1 X291.971 Y35.345 E13.92918
G3 X281.948 Y46.006 I-5.055 J5.289 E14.93184
M204 S10000
G1 X282.251 Y45.675 F18000
M204 S5000
G1 F3600
G3 X282.364 Y35.474 I4.666 J-5.049 E15.43571
G1 X279.701 Y26.503 E15.84611
G1 X276.22 Y26.503 E15.99877
G3 X275.550 Y25.868 I0.204 J-0.886 E16.04103
G1 X275.542 Y19.436 E16.32311
G1 X275.635 Y19.187 E16.33477
G1 X275.934 Y18.876 E16.35369
G1 X276.22 Y18.757 E16.36728
G1 X297.608 Y18.757 E17.30527
G1 X297.857 Y18.851 E17.31694
G1 X298.169 Y19.15 E17.33589
G1 X298.287 Y19.436 E17.34946
G1 X298.278 Y25.868 E17.63154
G3 X297.608 Y26.503 I-0.864 J-0.241 E17.67381
G1 X294.128 Y26.503 E17.82643
G1 X291.465 Y35.474 E18.23683
G3 X282.295 Y45.715 I-4.549 J5.153 E19.18768
M204 S10000
G1 X282.597 Y45.384 F18000
M204 S5000
G1 F3600
G3 X282.880 Y35.637 I4.306 J-4.753 E19.67339
G1 X280.035 Y26.054 E20.11179
G1 X276.287 Y26.054 E20.27616
G3 X275.990 Y25.758 I0.126 J-0.423 E20.29514
G1 X275.99 Y19.503 E20.56946
G3 X276.287 Y19.206 I0.421 J0.124 E20.58848
G1 X297.542 Y19.206 E21.52064
G3 X297.839 Y19.503 I-0.132 J0.429 E21.53964
G1 X297.839 Y25.758 E21.81396
G3 X297.542 Y26.054 I-0.426 J-0.130 E21.83292
G1 X293.793 Y26.054 E21.99734
G1 X290.949 Y35.637 E22.43573
G3 X282.642 Y45.425 I-4.033 J4.996 E23.33406
M204 S10000
G1 E22.28406 F6000
;WIPE_START
G1 F14400
G3 X281.864 Y44.597 I3.687 J-4.244 E21.83406
;WIPE_END
G92 E0
G1 X269.378 Y51.348 F18000
G1 E1.5 F6000
M204 S5000
G1 F3600
G1 X269.476 Y51.725 E1.51708
G1 X269.495 Y58.542 E1.81605
G3 X267.110 Y60.881 I-2.660 J-0.327 E1.97422
G1 X264.885 Y60.881 E2.0718
G1 X262.9 Y67.568 E2.37771
G3 X249.765 Y67.568 I-6.567 J5.650 E4.11088
G1 X247.78 Y60.881 E4.41679
G1 X245.554 Y60.881 E4.51441
G3 X244.171 Y60.319 I0.193 J-2.459 E4.58081
G1 X243.56 Y59.687 E4.61936
G1 X242.894 Y60.355 E4.66073
G3 X241.554 Y60.881 I-1.535 J-1.942 E4.72468
G1 X239.328 Y60.881 E4.8223
G1 X237.346 Y67.557 E5.12771
G3 X224.211 Y67.578 I-6.558 J5.661 E6.86088
G1 X222.223 Y60.881 E7.16725
G1 X219.998 Y60.881 E7.26483
G3 X217.613 Y58.541 I0.282 J-2.673 E7.42306
G1 X217.618 Y51.843 E7.71681
G3 X218.170 Y50.553 I2.447 J0.284 E7.77911
G1 X218.753 Y49.998 E7.81441
G3 X219.992 Y49.547 I1.446 J2.046 E7.87284
G1 X229.145 Y49.549 E8.27425
G1 X229.185 Y49.145 E8.29205
G3 X224.211 Y34.994 I1.575 J-8.503 E9.08824
G1 X222.223 Y28.297 E9.39461
G1 X219.959 Y28.293 E9.4939
G3 X217.609 Y25.912 I0.319 J-2.665 E9.65239
G1 X217.613 Y19.303 E9.94223
G3 X218.198 Y17.935 I2.477 J0.250 E10.00838
G1 X218.752 Y17.414 E10.04173
G3 X219.993 Y16.963 I1.453 J2.066 E10.10023
G1 X241.607 Y16.968 E11.04813
G3 X242.926 Y17.516 I-0.245 J2.451 E11.11157
G1 X243.552 Y18.139 E11.1503
G1 X244.271 Y17.443 E11.19419
G3 X245.549 Y16.963 I1.487 J2.017 E11.25473
G1 X267.165 Y16.968 E12.20272
G3 X269.476 Y19.141 I-0.351 J2.688 E12.35142
G1 X269.49 Y26.006 E12.65249
G3 X267.149 Y28.293 I-2.657 J-0.378 E12.80685
G1 X264.885 Y28.297 E12.90614
G1 X262.903 Y34.974 E13.2116
G3 X257.912 Y49.142 I-6.562 J5.651 E14.00873
G1 X257.949 Y49.55 E14.0267
G1 X267.165 Y49.551 E14.43088
G3 X269.354 Y51.293 I-0.340 J2.673 E14.55987
M204 S10000
G1 X268.945 Y51.478 F18000
M204 S5000
G1 F3600
G1 X269.035 Y51.807 E14.57483
G1 X269.046 Y58.519 E14.86919
G3 X267.090 Y60.432 I-2.209 J-0.302 E14.99839
G1 X264.55 Y60.432 E15.10978
G1 X262.402 Y67.668 E15.44081
G3 X250.263 Y67.668 I-6.069 J5.544 E17.10614
G1 X248.115 Y60.432 E17.43717
G1 X245.575 Y60.432 E17.54856
G3 X243.850 Y59.261 I0.278 J-2.266 E17.64353
G1 X243.555 Y58.57 E17.67648
G3 X243.089 Y59.523 I-3.079 J-0.915 E17.72314
G3 X241.533 Y60.432 I-1.814 J-1.320 E17.80443
G1 X238.993 Y60.432 E17.91582
G1 X236.841 Y67.682 E18.24749
G3 X224.710 Y67.684 I-6.065 J5.537 E19.91205
G1 X222.558 Y60.432 E20.2438
G1 X220.018 Y60.432 E20.35519
G3 X218.061 Y58.517 I0.261 J-2.224 E20.48448
G1 X218.061 Y51.911 E20.77419
G3 X220.015 Y49.996 I2.217 J0.308 E20.90338
G1 X241.584 Y50 E21.84931
G3 X243.223 Y51.103 I-0.326 J2.254 E21.93887
G1 X243.554 Y51.853 E21.97482
G3 X244.054 Y50.861 I2.973 J0.877 E22.02371
G1 X244.564 Y50.368 E22.05482
G3 X245.572 Y49.996 I1.184 J1.658 E22.10243
G1 X267.141 Y50 E23.04836
G3 X268.920 Y51.423 I-0.311 J2.213 E23.15322
M204 S10000
G1 X268.511 Y51.604 F18000
M204 S5000
G1 F3600
G1 X268.592 Y51.884 E23.166
G1 X268.598 Y58.494 E23.45589
G3 X267.070 Y59.984 I-1.762 J-0.278 E23.55622
G1 X264.216 Y59.984 E23.68139
G1 X261.895 Y67.8 E24.03896
G3 X250.770 Y67.800 I-5.562 J5.419 E25.63488
G1 X248.449 Y59.984 E25.99245
G1 X245.595 Y59.984 E26.11762
G3 X244.063 Y58.452 I0.239 J-1.771 E26.21980
G1 X244.063 Y51.976 E26.50381
G3 X245.594 Y50.444 I1.768 J0.236 E26.60594
G1 X267.115 Y50.448 E27.54977
G3 X268.487 Y51.549 I-0.288 J1.765 E27.63049
M204 S10000
G1 X268.076 Y51.725 F18000
M204 S5000
G1 F3600
G1 X268.149 Y51.957 E27.64116
G1 X268.154 Y58.43 E27.92504
G3 X267.051 Y59.535 I-1.325 J-0.219 E27.99816
G1 X263.881 Y59.535 E28.13718
G1 X261.389 Y67.929 E28.52119
G3 X251.276 Y67.929 I-5.056 J5.289 E30.04784
