; Postprocessed by [ArcWelder](https://github.com/FormerLurker/ArcWelderLib)
; Copyright(C) 2021 - Brad Hochgesang
; Version: 1.2.0, Branch: master, BuildDate: 2021-11-21T20:04:00Z
; resolution=0.05mm
; path_tolerance=5.0%
; max_radius=9999.00mm
; default_xyz_precision=3
; default_e_precision=5
; extrusion_rate_variance=5.0%

; generated by AnycubicSlicer 1.4.4 on 2024-12-04 at 01:14:05 UTC




; 

; external perimeters extrusion width = 0.45mm
; perimeters extrusion width = 0.45mm
; infill extrusion width = 0.45mm
; solid infill extrusion width = 0.45mm
; top infill extrusion width = 0.42mm
; first layer extrusion width = 0.50mm

; external perimeters extrusion width = 0.45mm
; perimeters extrusion width = 0.45mm
; infill extrusion width = 0.45mm
; solid infill extrusion width = 0.45mm
; top infill extrusion width = 0.42mm
; first layer extrusion width = 0.50mm

; external perimeters extrusion width = 0.45mm
; perimeters extrusion width = 0.45mm
; infill extrusion width = 0.45mm
; solid infill extrusion width = 0.45mm
; top infill extrusion width = 0.42mm
; first layer extrusion width = 0.50mm

; external perimeters extrusion width = 0.45mm
; perimeters extrusion width = 0.45mm
; infill extrusion width = 0.45mm
; solid infill extrusion width = 0.45mm
; top infill extrusion width = 0.42mm
; first layer extrusion width = 0.50mm

; external perimeters extrusion width = 0.45mm
; perimeters extrusion width = 0.45mm
; infill extrusion width = 0.45mm
; solid infill extrusion width = 0.45mm
; top infill extrusion width = 0.42mm
; first layer extrusion width = 0.50mm

; external perimeters extrusion width = 0.45mm
; perimeters extrusion width = 0.45mm
; infill extrusion width = 0.45mm
; solid infill extrusion width = 0.45mm
; top infill extrusion width = 0.42mm
; first layer extrusion width = 0.50mm

; external perimeters extrusion width = 0.45mm
; perimeters extrusion width = 0.45mm
; infill extrusion width = 0.45mm
; solid infill extrusion width = 0.45mm
; top infill extrusion width = 0.42mm
; first layer extrusion width = 0.50mm

; external perimeters extrusion width = 0.45mm
; perimeters extrusion width = 0.45mm
; infill extrusion width = 0.45mm
; solid infill extrusion width = 0.45mm
; top infill extrusion width = 0.42mm
; first layer extrusion width = 0.50mm

; external perimeters extrusion width = 0.45mm
; perimeters extrusion width = 0.45mm
; infill extrusion width = 0.45mm
; solid infill extrusion width = 0.45mm
; top infill extrusion width = 0.42mm
; first layer extrusion width = 0.50mm

; external perimeters extrusion width = 0.45mm
; perimeters extrusion width = 0.45mm
; infill extrusion width = 0.45mm
; solid infill extrusion width = 0.45mm
; top infill extrusion width = 0.42mm
; first layer extrusion width = 0.50mm

; external perimeters extrusion width = 0.45mm
; perimeters extrusion width = 0.45mm
; infill extrusion width = 0.45mm
; solid infill extrusion width = 0.45mm
; top infill extrusion width = 0.42mm
; first layer extrusion width = 0.50mm

; external perimeters extrusion width = 0.45mm
; perimeters extrusion width = 0.45mm
; infill extrusion width = 0.45mm
; solid infill extrusion width = 0.45mm
; top infill extrusion width = 0.42mm
; first layer extrusion width = 0.50mm

; external perimeters extrusion width = 0.45mm
; perimeters extrusion width = 0.45mm
; infill extrusion width = 0.45mm
; solid infill extrusion width = 0.45mm
; top infill extrusion width = 0.42mm
; first layer extrusion width = 0.50mm

; external perimeters extrusion width = 0.45mm
; perimeters extrusion width = 0.45mm
; infill extrusion width = 0.45mm
; solid infill extrusion width = 0.45mm
; top infill extrusion width = 0.42mm
; first layer extrusion width = 0.50mm

; external perimeters extrusion width = 0.45mm
; perimeters extrusion width = 0.45mm
; infill extrusion width = 0.45mm
; solid infill extrusion width = 0.45mm
; top infill extrusion width = 0.42mm
; first layer extrusion width = 0.50mm

; external perimeters extrusion width = 0.45mm
; perimeters extrusion width = 0.45mm
; infill extrusion width = 0.45mm
; solid infill extrusion width = 0.45mm
; top infill extrusion width = 0.42mm
; first layer extrusion width = 0.50mm

;TYPE:Custom
G90 ; use absolute coordinates
M83 ; extruder relative mode
M140 S60 ; set bed temp
M190 S60 ; wait for bed temp
M104 S220 ; set extruder temp
M109 S220 ; wait for extruder temp
G28                                        ; move X/Y/Z to min endstops
G1 Z0.28                                   ; lift nozzle a bit 
G92 E0 
G1 Y3 F2400                                    ; zero the extruded length 
G1 X180  E40 F500                       ; Extrude 25mm of filament in a 5cm line. 
G92 E0                                     ; zero the extruded length again 
G1 E-2 F3000                                ; Retract a little 
G1 X181 F4000                              ; Quickly wipe away from the filament line
M117
G21 ; set units to millimeters
G90 ; use absolute coordinates
M82 ; use absolute distances for extrusion
G92 E0
M107
;LAYER_CHANGE
;Z:0.24
;HEIGHT:0.24
; BEFORE_LAYER_CHANGE 0 @ 0.24mm
G1 Z.24 F18000
; AFTER_LAYER_CHANGE 0 @ 0.24mm
G1 E-1.5 F6000
G92 E0
G1 X249.823 Y188.124 F18000
G1 E1.5 F6000
M204 S5000
;TYPE:Skirt/Brim
;WIDTH:0.5
G1 F3600
G1 X250.35 Y187.583 E1.53312
G1 X250.718 Y187.334 E1.55261
G1 X251.197 Y187.133 E1.57539
G1 X251.714 Y187.035 E1.59847
G1 X273.328 Y187.039 E2.54637
G1 X273.806 Y187.136 E2.56776
G1 X274.25 Y187.321 E2.58885
G1 X274.652 Y187.591 E2.61009
G1 X275.065 Y187.995 E2.63543
G1 X275.57 Y187.514 E2.66602
G1 X275.925 Y187.296 E2.68429
G1 X276.328 Y187.134 E2.70334
G1 X276.847 Y187.035 E2.72651
G1 X298.462 Y187.039 E3.67446
G3 X300.083 Y187.880 I-0.249 J2.463 E3.75635
G3 X301.749 Y187.035 I1.863 J1.608 E3.84027
G1 X323.364 Y187.039 E4.78822
G3 X325.099 Y187.994 I-0.282 J2.566 E4.87718
G3 X326.883 Y187.035 I2.014 J1.608 E4.96829
G1 X348.498 Y187.039 E5.91624
G3 X350.817 Y189.264 I-0.348 J2.683 E6.06721
G1 X350.829 Y196.019 E6.36346
G3 X350.382 Y197.225 I-2.583 J-0.272 E6.42041
G3 X349.450 Y198.065 I-2.480 J-1.814 E6.47571
G3 X348.482 Y198.365 I-1.188 J-2.122 E6.52040
G1 X346.218 Y198.368 E6.61969
G1 X344.236 Y205.046 E6.92519
G3 X342.706 Y217.758 I-6.583 J5.656 E7.55638
G1 X348.593 Y217.77 E7.81456
G3 X350.828 Y220.091 I-0.439 J2.659 E7.96604
G1 X350.823 Y226.797 E8.26014
G3 X350.346 Y227.992 I-2.521 J-0.314 E8.31713
G3 X349.402 Y228.811 I-2.355 J-1.761 E8.37224
G3 X348.482 Y229.085 I-1.134 J-2.126 E8.41455
G1 X346.218 Y229.089 E8.51384
G1 X344.236 Y235.766 E8.8193
G3 X331.099 Y235.776 I-6.564 J5.657 E10.55275
G1 X329.113 Y229.089 E10.85868
G1 X326.888 Y229.089 E10.95626
G3 X325.099 Y228.122 I0.218 J-2.543 E11.04783
G3 X323.308 Y229.089 I-2.007 J-1.575 E11.13947
G1 X321.084 Y229.089 E11.23701
G1 X319.099 Y235.777 E11.54297
G3 X305.968 Y235.786 I-6.562 J5.652 E13.27594
G1 X303.979 Y229.089 E13.58232
G1 X301.754 Y229.089 E13.6799
G3 X300.081 Y228.239 I0.191 J-2.447 E13.76425
G3 X298.408 Y229.089 I-1.864 J-1.597 E13.84860
G1 X296.183 Y229.089 E13.94618
G1 X294.198 Y235.776 E14.25209
G3 X281.063 Y235.776 I-6.568 J5.649 E15.98526
G1 X279.078 Y229.089 E16.29117
G1 X276.854 Y229.089 E16.38871
G3 X275.060 Y228.120 I0.218 J-2.549 E16.48051
G3 X273.274 Y229.089 I-1.996 J-1.548 E16.57205
G1 X271.049 Y229.089 E16.66963
G1 X269.063 Y235.777 E16.9756
G3 X255.929 Y235.776 I-6.567 J5.649 E18.70876
G1 X253.944 Y229.089 E19.01467
G1 X251.68 Y229.085 E19.11396
G3 X249.334 Y226.750 I0.307 J-2.655 E19.27042
G1 X249.334 Y220.093 E19.56237
G3 X251.673 Y217.759 I2.654 J0.320 E19.71851
G1 X257.407 Y217.756 E19.96998
G3 X254.201 Y213.210 I5.728 J-7.443 E20.21787
G3 X255.929 Y205.055 I8.268 J-2.509 E20.59926
G1 X253.944 Y198.368 E20.90517
G1 X251.68 Y198.365 E21.00446
G3 X249.329 Y195.984 I0.322 J-2.669 E21.16294
G1 X249.337 Y189.338 E21.45441
G3 X249.791 Y188.175 I2.376 J0.258 E21.50973
M204 S10000
G1 X250.169 Y188.414 F18000
M204 S5000
G1 F3600
G1 X250.652 Y187.916 E21.54016
G3 X251.735 Y187.483 I1.269 J1.602 E21.59196
G1 X273.304 Y187.487 E22.53789
G3 X274.748 Y188.316 I-0.264 J2.132 E22.61269
G1 X275.069 Y188.749 E22.63633
G3 X276.439 Y187.569 I2.369 J1.365 E22.71729
G1 X276.87 Y187.483 E22.73656
G1 X298.438 Y187.487 E23.68245
G3 X299.513 Y187.948 I-0.224 J2.007 E23.73439
G1 X300.08 Y188.522 E23.76977
G1 X300.687 Y187.916 E23.80739
G3 X301.771 Y187.483 I1.271 J1.608 E23.85923
G1 X323.339 Y187.487 E24.80512
G3 X324.783 Y188.316 I-0.261 J2.127 E24.87994
G1 X325.105 Y188.749 E24.9036
G3 X326.516 Y187.557 I2.179 J1.148 E24.98643
G1 X326.905 Y187.483 E25.0038
G1 X348.474 Y187.487 E25.94973
G3 X350.368 Y189.294 I-0.326 J2.238 E26.07224
G1 X350.384 Y195.962 E26.36467
G3 X350.011 Y196.971 I-2.078 J-0.195 E26.41234
G3 X348.423 Y197.920 I-1.870 J-1.325 E26.49586
G1 X345.884 Y197.92 E26.60721
G1 X343.731 Y205.171 E26.93893
G3 X341.673 Y217.885 I-6.062 J5.542 E27.58792
G1 X341.768 Y218.206 E27.6026
G1 X348.519 Y218.213 E27.89867
G3 X350.380 Y220.115 I-0.366 J2.219 E28.02362
G1 X350.375 Y226.772 E28.31557
G3 X348.423 Y228.640 I-2.208 J-0.353 E28.44281
G1 X345.884 Y228.64 E28.55416
G1 X343.731 Y235.891 E28.88588
G3 X331.596 Y235.876 I-6.074 J5.532 E30.55081
G1 X329.448 Y228.64 E30.88184
G1 X326.907 Y228.64 E30.99328
G3 X325.379 Y227.765 I0.245 J-2.200 E31.07262
G1 X325.099 Y227.354 E31.09443
G3 X323.581 Y228.596 I-2.307 J-1.271 E31.18273
G1 X323.29 Y228.64 E31.19564
G1 X320.75 Y228.64 E31.30703
G1 X318.602 Y235.876 E31.63806
G3 X306.467 Y235.892 I-6.060 J5.548 E33.30294
G1 X304.314 Y228.64 E33.6347
G1 X301.773 Y228.64 E33.74614
G3 X300.716 Y228.230 I0.185 J-2.044 E33.79645
G1 X300.081 Y227.604 E33.83556
G1 X299.446 Y228.23 E33.87467
G3 X298.389 Y228.640 I-1.225 J-1.590 E33.92498
G1 X295.848 Y228.64 E34.03642
G1 X293.7 Y235.876 E34.36745
G3 X281.561 Y235.876 I-6.070 J5.544 E36.03269
G1 X279.412 Y228.64 E36.36373
G1 X276.872 Y228.64 E36.47512
G3 X275.343 Y227.765 I0.244 J-2.200 E36.55452
G1 X275.064 Y227.355 E36.57627
G3 X273.594 Y228.582 I-2.331 J-1.299 E36.66232
G1 X273.255 Y228.64 E36.6774
G1 X270.714 Y228.64 E36.78884
G1 X268.566 Y235.876 E37.11987
G3 X256.427 Y235.876 I-6.069 J5.544 E38.78518
G1 X254.278 Y228.64 E39.11622
G1 X251.739 Y228.64 E39.22757
G3 X249.782 Y226.727 I0.253 J-2.217 E39.35680
G1 X249.782 Y220.116 E39.64673
G3 X251.735 Y218.204 I2.200 J0.294 E39.77574
G1 X258.389 Y218.205 E40.06756
G1 X258.484 Y217.884 E40.08224
G3 X256.427 Y205.156 I4.030 J-7.181 E40.73138
G1 X254.278 Y197.92 E41.06242
G1 X251.739 Y197.92 E41.17377
G3 X249.778 Y195.963 I0.259 J-2.221 E41.30491
G1 X249.782 Y189.402 E41.59265
G3 X250.137 Y188.465 I1.862 J0.170 E41.63705
M204 S10000
G1 X250.513 Y188.708 F18000
M204 S5000
G1 F3600
G1 X250.55 Y188.651 E41.64003
G3 X251.758 Y187.932 I1.433 J1.033 E41.70337
G1 X273.279 Y187.936 E42.6472
G3 X274.756 Y189.372 I-0.295 J1.781 E42.74338
G1 X274.766 Y195.941 E43.03147
G3 X273.234 Y197.471 I-1.771 J-0.241 E43.13357
G1 X270.379 Y197.471 E43.25878
G1 X268.059 Y205.288 E43.61638
G3 X264.262 Y218.268 I-5.557 J5.420 E44.33621
G1 X264.315 Y218.655 E44.35334
G1 X273.279 Y218.656 E44.74647
G3 X274.762 Y220.139 I-0.293 J1.776 E44.84471
G1 X274.766 Y226.661 E45.13074
G3 X273.234 Y228.192 I-1.771 J-0.240 E45.23287
G1 X270.379 Y228.192 E45.35808
G1 X268.059 Y236.008 E45.71564
G3 X256.934 Y236.008 I-5.563 J5.418 E47.31154
G1 X254.613 Y228.192 E47.66911
G1 X251.759 Y228.192 E47.79428
G3 X250.231 Y226.702 I0.231 J-1.766 E47.89463
G1 X250.231 Y220.141 E48.18237
G3 X251.758 Y218.652 I1.757 J0.274 E48.28265
G1 X260.652 Y218.654 E48.67271
G1 X260.711 Y218.275 E48.68953
G3 X256.934 Y205.288 I1.793 J-7.564 E49.40864
G1 X254.613 Y197.471 E49.76626
G1 X251.759 Y197.471 E49.89143
G3 X250.226 Y195.940 I0.240 J-1.773 E49.99358
G1 X250.226 Y189.462 E50.27768
G3 X250.480 Y188.759 I1.368 J0.097 E50.31078
M204 S10000
G1 E49.26078 F6000
;WIPE_START
G1 F14400
G3 X251.337 Y188.041 I1.487 J0.904 E48.81078
;WIPE_END
G92 E0
G1 X251.78 Y219.101 F18000
G1 E1.5 F6000
M204 S5000
G1 F3600
G1 X273.253 Y219.105 E2.44172
G3 X274.313 Y220.165 I-0.268 J1.328 E2.51138
G1 X274.317 Y226.638 E2.79526
G3 X273.215 Y227.743 I-1.323 J-0.217 E2.86837
G1 X270.045 Y227.743 E3.00739
G1 X267.553 Y236.137 E3.3914
G3 X257.440 Y236.137 I-5.057 J5.289 E4.91802
G1 X254.948 Y227.743 E5.30203
G1 X251.777 Y227.743 E5.4411
G3 X250.675 Y226.638 I0.209 J-1.310 E5.51418
G1 X250.675 Y220.206 E5.79626
G3 X251.721 Y219.112 I1.304 J0.200 E5.86686
M204 S10000
G1 X251.802 Y219.549 F18000
M204 S5000
G1 F3600
G1 X273.19 Y219.549 E6.80485
G1 X273.476 Y219.667 E6.81842
G1 X273.775 Y219.979 E6.83737
G1 X273.869 Y220.228 E6.84904
G1 X273.86 Y226.659 E7.13108
G3 X273.190 Y227.295 I-0.868 J-0.244 E7.17338
G1 X269.71 Y227.295 E7.326
G1 X267.047 Y236.265 E7.73636
G3 X257.946 Y236.265 I-4.551 J5.154 E9.19376
G1 X255.282 Y227.295 E9.60413
G1 X251.802 Y227.295 E9.75675
G3 X251.132 Y226.659 I0.203 J-0.885 E9.79903
G1 X251.123 Y220.228 E10.08107
G3 X251.744 Y219.564 I0.870 J0.191 E10.12266
M204 S10000
G1 X251.869 Y219.998 F18000
M204 S5000
G1 F3600
G1 X273.124 Y219.998 E11.05482
G3 X273.420 Y220.294 I-0.128 J0.424 E11.07376
G1 X273.42 Y226.549 E11.34808
G3 X273.124 Y226.846 I-0.423 J-0.126 E11.36706
G1 X269.375 Y226.846 E11.53148
G1 X266.531 Y236.428 E11.96983
G3 X258.462 Y236.428 I-4.035 J4.996 E13.35660
G1 X255.617 Y226.846 E13.79496
G1 X251.869 Y226.846 E13.95933
G3 X251.572 Y226.549 I0.124 J-0.421 E13.97835
G1 X251.572 Y220.294 E14.25267
G3 X251.813 Y220.021 I0.416 J0.125 E14.26891
M204 S10000
G1 E13.21891 F6000
;WIPE_START
G1 F14400
G1 X252.95 Y220.02 E12.76891
;WIPE_END
G92 E0
G1 X256.893 Y215.413 F18000
G1 E1.5 F6000
M204 S5000
G1 F3600
G3 X257.440 Y205.416 I5.589 J-4.708 E1.98357
G1 X254.948 Y197.023 E2.36754
G1 X251.777 Y197.023 E2.50661
G3 X250.675 Y195.918 I0.211 J-1.312 E2.57968
G1 X250.675 Y189.485 E2.86181
G3 X251.780 Y188.380 I1.310 J0.205 E2.93502
G1 X273.253 Y188.384 E3.87674
G3 X274.313 Y189.444 I-0.270 J1.330 E3.94636
G1 X274.317 Y195.918 E4.23028
G3 X273.215 Y197.023 I-1.323 J-0.217 E4.30338
G1 X270.045 Y197.023 E4.4424
G1 X267.553 Y205.416 E4.82637
G3 X256.934 Y215.457 I-5.055 J5.290 E5.86678
M204 S10000
G1 X257.261 Y215.152 F18000
M204 S5000
G1 F3600
G3 X257.946 Y205.545 I5.243 J-4.454 E6.33448
G1 X255.282 Y196.574 E6.74489
G1 X251.802 Y196.574 E6.89751
G3 X251.132 Y195.939 I0.204 J-0.886 E6.93977
G1 X251.123 Y189.507 E7.22185
G1 X251.217 Y189.258 E7.23352
G1 X251.516 Y188.947 E7.25244
G1 X251.802 Y188.829 E7.26601
G1 X273.19 Y188.829 E8.204
G1 X273.439 Y188.922 E8.21566
G1 X273.751 Y189.222 E8.23464
G1 X273.869 Y189.507 E8.24817
G1 X273.86 Y195.939 E8.53025
G3 X273.190 Y196.574 I-0.864 J-0.241 E8.57252
G1 X269.71 Y196.574 E8.72514
G1 X267.047 Y205.545 E9.13554
G3 X257.302 Y215.195 I-4.547 J5.153 E10.12259
M204 S10000
G1 X257.629 Y214.89 F18000
M204 S5000
G1 F3600
G3 X258.462 Y205.708 I4.855 J-4.188 E10.57371
G1 X255.617 Y196.126 E11.01207
G1 X251.869 Y196.126 E11.17644
G3 X251.572 Y195.829 I0.128 J-0.425 E11.19544
G1 X251.572 Y189.574 E11.46976
G3 X251.869 Y189.277 I0.421 J0.124 E11.48877
G1 X273.124 Y189.277 E12.42093
G3 X273.420 Y189.574 I-0.130 J0.426 E12.43990
G1 X273.42 Y195.829 E12.71422
G3 X273.124 Y196.126 I-0.432 J-0.134 E12.73318
G1 X269.375 Y196.126 E12.8976
G1 X266.531 Y205.708 E13.33595
G3 X257.670 Y214.934 I-4.032 J4.996 E14.26891
M204 S10000
G1 E13.21891 F6000
;WIPE_START
G1 F14400
G3 X256.999 Y214.019 I2.879 J-2.815 E12.76891
;WIPE_END
G92 E0
G1 X266.491 Y217.875 F18000
G1 E1.5 F6000
M204 S5000
G1 F3600
G2 X268.566 Y205.156 I-3.989 J-7.179 E2.14958
G1 X270.714 Y197.92 E2.48061
G1 X273.255 Y197.92 E2.59205
G2 X274.349 Y197.479 I-0.176 J-2.015 E2.64446
G2 X275.055 Y196.625 I-1.582 J-2.027 E2.69332
G2 X276.532 Y197.862 I2.350 J-1.306 E2.77990
G1 X276.872 Y197.92 E2.79503
G1 X279.412 Y197.92 E2.90642
G1 X281.561 Y205.156 E3.23746
G2 X283.620 Y217.884 I6.085 J5.546 E3.88665
G1 X283.526 Y218.206 E3.90136
G1 X276.78 Y218.213 E4.19721
G2 X275.073 Y219.475 I0.403 J2.330 E4.29360
G2 X273.688 Y218.290 I-2.269 J1.250 E4.37511
G1 X273.35 Y218.213 E4.39031
G1 X266.58 Y218.206 E4.68722
G1 X266.506 Y217.933 E4.69962
